!!!COM: Bach, Johann Sebastian
!!!CDT: 1685/3//-1750/7/28/
!!!OTL@@DE: O wie selig seid ihr doch, ihr Frommen
!!!AGN: 4-Part Chorale
!!!SCT: BH 213
!!!SCT: BWV 405
**harm	**root	**kern	**kern	**kern	**kern
!	!	!bass	!tenor	!alto	!soprno
*	*Iorgan	*Iorgan	*Iorgan	*Iorgan	*Iorgan
*	*	*clefF4	*clefF4	*clefG2	*clefG2
*M4/4	*M4/4	*M4/4	*M4/4	*M4/4	*M4/4
*met(c)	*met(c)	*met(c)	*met(c)	*met(c)	*met(c)
*MM60	*MM60	*MM60	*MM60	*MM60	*MM60
*k[]	*k[]	*k[]	*k[]	*k[]	*k[]
*a:	*a:	*a:	*a:	*a:	*a:
=1-	=1-	=1-	=1-	=1-	=1-
i	4DD	4AA	4A	4c	4e
ivb	4GG	8GG	4A	4d	4a
.	.	8FF	.	.	.
v7	4AA	4EE	4B	4d	4g
i	4DD	4AA	4A	[4c	8f
.	.	.	.	.	8e
=2	=2	=2	=2	=2	=2
iv7	8GG	4DD	8A	8c]	4f
iiob	8EE	.	8F	8B	.
IIIb	4FF	8EE	4G	[4c	4e
.	.	8FF	.	.	.
-VII	4CC	4GG	4G	8c]	4d
.	.	.	.	8B	.
III	4FF	4C	4G	4c	8e
.	.	.	.	.	8f
=3	=3	=3	=3	=3	=3
V7b/-VII	4GG	4FF	8A	4c	2d
.	.	.	8F	.	.
-VII	4CC	4GG	8D	4B	.
.	.	.	8G	.	.
III;	2FF;	2CC;	2E;	2G;	2c;
=4	=4	=4	=4	=4	=4
III	4FF	4C	8G	4c	8e
.	.	.	8A	.	8f
-VII	4CC	8BB	8B	8d	4g
.	.	8C#	8A	8e	.
IV	4GG	8D	4A	4d	4.f#
.	.	8C	.	.	.
viiob	4CC#	4BB	4B	4d	.
.	.	.	.	.	8g#
=5	=5	=5	=5	=5	=5
Ib	8DD	8C#	8A	8e	4a
viio/V	8GG#	8D#	8F#	8f#	.
v	4AA	4E	4B	4e	8g
.	.	.	.	.	8a
vb	4AA	4GG	4B	4e	4b
i	4DD	4AA	4c	4e	8a
.	.	.	.	.	8g
!!linebreak: 2
=6	=6	=6	=6	=6	=6
V7/V	2EE	4BB	8F#	4e	2f#
.	.	.	4B	.	.
.	.	4BBB	.	4d#	.
.	.	.	8A	.	.
V;	2AA;	2EE;	2G#;	2B;	2e;
=7	=7	=7	=7	=7	=7
r	4r	4r	4r	4r	4r
V	4AA	4EE	4BB	4G#	4e
IVb	4GG	4FF#	4AA	4A	4d
Vb	4AA	4GG#	4E	4B	4B
=8	=8	=8	=8	=8	=8
i	2DD	4AA	2E	4B	2c
.	.	4AAA	.	4A	.
V;	2AA;	2EE;	2E;	2G#;	2B;
=9	=9	=9	=9	=9	=9
ib	4DD	4C	4E	4A	4A
Vb	4AA	4GG#	4E	4E	4B
i	4DD	4AA	8E	4A	4c
.	.	.	8F	.	.
-VIIb	4CC	4BB	8E	4G	4d
.	.	.	8D	.	.
=10	=10	=10	=10	=10	=10
III	4FF	4C	8C	4G	4e
.	.	.	8E	.	.
viiob/-VII	4BB	8BB	8D	4c	4f#
.	.	8AA	8C	.	.
viiob	4CC#	4BB	4D	4B	4g#
ib	4DD	8C	8E	8A	4a
.	.	8D	8F	8B	.
=11	=11	=11	=11	=11	=11
ic	4DD	4E	4E	8c	4a
.	.	.	.	16B	.
.	.	.	.	16A	.
V	4AA	4EE	4E	4B	4g#
I;	2DD;	2AA;	2E;	2c#;	2a;
==	==	==	==	==	==
*-	*-	*-	*-	*-	*-
!!chor2scor: -l 2 -s 0.6 -o %b.pmx
!!!YEC: Copyright 2003 by Craig Stuart Sapp
!!!license: GNU General Public License (http://www.gnu.org/copyleft/gpl.html)
!!!SMA: 371 Bach Chorales, edited by Ludwig Erk, C.F. Peters
!!!PDT: 1850, 1865
!!!ONB: Harmony and Root analysis done manually by Craig Sapp
